X:427
T:Roaring Barmaid, The
R:jig
C:Anthony Sullivan
Z:hn-jig-427
M:6/8
L:1/8
K:G
~G3 EGD | ~G3 EGD | ~G3 BGG | dGG B2A |
~G3 EGD | ~G3 EGD | G2B deg | deg edB :|
|: deg b2b | bab deg | b2b bag | age deg |
b2b bab | agg bgg | agg deg | deg edB :|
P:variations
|: ~G3 EGD | ~G3 EGD | ~G3 BGG | dGG BGG |
~G3 EGD | ~G3 EGD | GAB deg | deg edB :|
|: deg ~b3 | b3 deg | b3 bag | edB deg |
~b3 ~b3 | agg bgg | agg egg | deg edB :|

